; generated by PrusaSlicer 2.8.1+MacOS-arm64 on 2024-12-05 at 21:57:28 UTC

; 

; external perimeters extrusion width = 0.45mm
; perimeters extrusion width = 0.45mm
; infill extrusion width = 0.45mm
; solid infill extrusion width = 0.45mm
; top infill extrusion width = 0.40mm
; support material extrusion width = 0.35mm
; first layer extrusion width = 0.42mm

M73 P0 R104
M73 Q0 S105
;TYPE:Custom
M115 U3.7.1 ; tell printer latest fw version
G90 ; use absolute coordinates
M83 ; extruder relative mode
M104 S205 ; set extruder temp
M140 S60 ; set bed temp
M190 S60 ; wait for bed temp
M109 S205 ; wait for extruder temp
G28 W ; home all without mesh bed level
G80 ; mesh bed leveling
G1 Y-3.0 F1000.0 ; go outside print area
G92 E0.0
G1 X60.0 E9.0 F1000.0 ; intro line
G1 X100.0 E12.5 F1000.0 ; intro line
G92 E0.0
M221 S100
G21 ; set units to millimeters
G90 ; use absolute coordinates
M83 ; use relative distances for extrusion
M900 K30 ; Filament gcode
M107
;LAYER_CHANGE
;Z:0.28
;HEIGHT:0.28
G1 E-.8 F2100
M73 Q0 S104
G1 Z.28 F10800
G1 X74.016 Y77.836
G1 Z.28
G1 E.8 F2100
M204 S1000
;TYPE:Skirt/Brim
;WIDTH:0.42
G1 F600
G1 X75.192 Y76.854 E.07049
G1 X76.525 Y76.098 E.0705
G1 X77.971 Y75.592 E.07048
G1 X79.75 Y75.333 E.08271
G1 X110.7 Y74.98 E1.42403
G1 X163.585 Y77.621 E2.43615
G1 X165.068 Y77.995 E.07037
G1 X179.24 Y84.031 E.7087
G1 X180.233 Y84.878 E.06005
G1 X180.566 Y86.036 E.05544
G1 X180.566 Y88.036 E.09202
G1 X180.175 Y89.282 E.06008
G1 X179.391 Y89.971 E.04802
G1 X98.663 Y131.898 E4.18516
G1 X97.658 Y132.144 E.0476
G1 X94.114 Y132.144 E.16305
G1 X92.868 Y131.753 E.06008
G1 X92.182 Y130.974 E.04776
G1 X69.682 Y87.974 E2.2328
G1 X69.451 Y86.69 E.06002
G1 X69.635 Y86.049 E.03068
G1 X72.339 Y80.198 E.29655
G1 X73.264 Y78.696 E.08116
G1 X73.976 Y77.881 E.04979
;WIPE_START
G1 F8640
G1 X74.016 Y77.836 E-.0139
G1 X75.192 Y76.854 E-.35376
G1 X76.525 Y76.098 E-.35385
G1 X76.846 Y75.986 E-.07849
;WIPE_END
G1 X97.416 Y109.038 F10800
G1 E.8 F2100
;TYPE:Support material
G1 F600
G1 X99 Y109.215 E.07333
G1 X101.131 Y109.677 E.10032
G1 X101.333 Y110.084 E.0209
G1 X101.658 Y111.17 E.05215
G1 X101.79 Y112.305 E.05257
G1 X101.723 Y113.452 E.05286
G1 X101.453 Y114.576 E.05318
G1 X100.977 Y115.663 E.0546
G1 X100.256 Y116.696 E.05796
G1 X99.334 Y117.525 E.05704
G1 X98.362 Y118.128 E.05263
G1 X97.239 Y118.571 E.05554
G1 X96.142 Y118.794 E.0515
G1 X95.002 Y118.821 E.05246
G1 X93.886 Y118.65 E.05194
G1 X92.83 Y118.294 E.05127
G1 X91.862 Y117.772 E.0506
G1 X91.003 Y117.104 E.05006
G1 X90.154 Y116.145 E.05893
G1 X89.592 Y115.123 E.05366
G1 X89.223 Y114.024 E.05334
G1 X89.054 Y112.883 E.05307
G1 X89.087 Y111.737 E.05275
G1 X89.317 Y110.619 E.05251
G1 X89.562 Y110.004 E.03046
G1 X91.544 Y109.447 E.09472
G1 X94.013 Y109.059 E.11499
G1 X95.261 Y108.981 E.05753
G1 X97.362 Y109.034 E.09669
G1 X97.362 Y109.034 F10800
G1 X101.406 Y114.079
G1 F600
G1 X101.406 Y111.804 E.10467
G1 X101.34 Y111.235 E.02635
G1 X101.006 Y110.153 E.0521
G1 X101.006 Y114.79 E.21334
G1 X100.606 Y115.629 E.04276
G1 X100.606 Y109.878 E.26459
G1 X100.206 Y109.776 E.01899
G1 X100.206 Y116.201 E.2956
G1 X99.806 Y116.665 E.02818
G1 X99.806 Y109.697 E.32058
G1 X99.406 Y109.621 E.01873
G1 X99.406 Y117.024 E.3406
G1 X99.006 Y117.347 E.02365
G1 X99.006 Y109.546 E.35891
G1 X98.607 Y109.492 E.01852
G1 X98.607 Y117.595 E.3728
G1 X98.207 Y117.842 E.02163
G1 X98.207 Y109.442 E.38647
G1 X97.807 Y109.392 E.01855
G1 X97.807 Y118.007 E.39636
G1 X97.407 Y118.164 E.01977
G1 X97.407 Y109.362 E.40496
G1 X97.007 Y109.337 E.01844
G1 X97.007 Y118.288 E.41182
G1 X96.607 Y118.369 E.01878
G1 X96.607 Y109.312 E.41669
G1 X96.207 Y109.305 E.01841
G1 X96.207 Y118.45 E.42074
G1 X95.807 Y118.478 E.01845
G1 X95.807 Y109.305 E.42203
G1 X95.407 Y109.305 E.0184
G1 X95.407 Y118.487 E.42244
G1 X95.007 Y118.494 E.01841
G1 X95.007 Y109.322 E.42198
G1 X94.608 Y109.347 E.01839
M73 P0 R103
G1 X94.608 Y118.433 E.41803
G1 X94.208 Y118.371 E.01862
G1 X94.208 Y109.372 E.41402
G1 X93.808 Y109.411 E.01849
G1 X93.808 Y118.282 E.40813
G1 X93.408 Y118.147 E.01942
G1 X93.408 Y109.461 E.39962
G1 X93.008 Y109.512 E.01855
G1 X93.008 Y118.012 E.39107
G1 X92.608 Y117.806 E.0207
G1 X92.608 Y109.575 E.37869
G1 X92.208 Y109.651 E.01873
G1 X92.208 Y117.591 E.3653
G1 X91.808 Y117.32 E.02223
G1 X91.808 Y109.727 E.34934
G1 X91.408 Y109.816 E.01885
G1 X91.408 Y117.009 E.33093
G1 X91.008 Y116.632 E.02529
G1 X91.008 Y109.918 E.3089
G1 X90.609 Y110.019 E.01894
G1 X90.609 Y116.19 E.28391
G1 X90.209 Y115.572 E.03387
G1 X90.209 Y110.136 E.2501
G1 X89.809 Y110.264 E.01932
G1 X89.809 Y114.751 E.20644
G1 X89.539 Y113.948 E.03898
G1 X89.409 Y113.069 E.04088
G1 X89.409 Y110.978 E.0962
M73 P1 R103
;WIPE_START
G1 F8640
M73 Q1 S104
G1 X89.409 Y113.069 E-.48282
G1 X89.539 Y113.948 E-.20517
G1 X89.693 Y114.408 E-.11201
;WIPE_END
G1 X86.833 Y89.674 F10800
G1 E.8 F2100
G1 F600
G1 X87.555 Y89.723 E.03329
G1 X88.674 Y90.007 E.05311
G1 X89.72 Y90.485 E.05291
G1 X90.66 Y91.139 E.05268
G1 X91.468 Y91.947 E.05257
G1 X92.184 Y93.027 E.05962
G1 X91.52 Y94.624 E.07957
G1 X90.942 Y95.752 E.05831
G1 X89.577 Y97.887 E.11659
G1 X87.955 Y99.833 E.11655
G1 X87.055 Y100.725 E.0583
G1 X85.196 Y102.253 E.11071
G1 X84.143 Y101.923 E.05077
M73 Q1 S103
G1 X83.13 Y101.394 E.05258
G1 X82.224 Y100.692 E.05273
G1 X81.456 Y99.837 E.05288
G1 X80.633 Y98.302 E.08013
G1 X80.429 Y97.778 E.02587
G1 X80.208 Y96.64 E.05333
G1 X80.197 Y95.478 E.05346
G1 X80.399 Y94.331 E.05358
G1 X80.806 Y93.238 E.05366
G1 X81.407 Y92.238 E.05368
G1 X82.181 Y91.365 E.05368
G1 X83.101 Y90.648 E.05366
G1 X84.136 Y90.112 E.05362
G1 X85.248 Y89.774 E.05347
G1 X86.405 Y89.643 E.05357
G1 X86.779 Y89.67 E.01725
G1 X86.779 Y89.67 F10800
G1 X91.808 Y93.557
G1 F600
G1 X91.808 Y93.005 E.0254
G1 X91.408 Y92.429 E.03226
G1 X91.408 Y94.07 E.0755
G1 X91.008 Y94.912 E.04289
G1 X91.008 Y91.946 E.13646
G1 X90.609 Y91.546 E.02599
G1 X90.609 Y95.678 E.1901
G1 X90.209 Y96.35 E.03598
G1 X90.209 Y91.22 E.23602
G1 X89.809 Y90.942 E.02241
G1 X89.809 Y96.975 E.27756
G1 X89.409 Y97.56 E.0326
G1 X89.409 Y90.699 E.31566
G1 X89.009 Y90.517 E.02022
G1 X89.009 Y98.088 E.34832
G1 X88.609 Y98.6 E.02989
G1 X88.609 Y90.334 E.3803
G1 X88.209 Y90.223 E.0191
G1 X88.209 Y99.059 E.40652
G1 X87.809 Y99.509 E.0277
G1 X87.809 Y90.122 E.43187
G1 X87.409 Y90.038 E.0188
G1 X87.409 Y99.918 E.45456
G1 X87.009 Y100.314 E.0259
G1 X87.009 Y90.01 E.47406
G1 X86.61 Y89.983 E.0184
G1 X86.61 Y100.684 E.49233
G1 X86.21 Y101.033 E.02442
G1 X86.21 Y89.991 E.50802
G1 X85.81 Y90.037 E.01852
G1 X85.81 Y101.373 E.52154
G1 X85.41 Y101.68 E.0232
G1 X85.41 Y90.082 E.5336
G1 X85.01 Y90.185 E.019
G1 X85.01 Y101.855 E.53691
G1 X84.61 Y101.73 E.01928
G1 X84.61 Y90.307 E.52555
G1 X84.21 Y90.439 E.01938
G1 X84.21 Y101.592 E.51312
G1 X83.81 Y101.384 E.02074
G1 X83.81 Y90.646 E.49403
G1 X83.41 Y90.853 E.02072
G1 X83.41 Y101.175 E.47489
G1 X83.01 Y100.891 E.02257
G1 X83.01 Y91.13 E.44908
G1 X82.61 Y91.441 E.02331
G1 X82.61 Y100.581 E.42051
G1 X82.211 Y100.192 E.02564
G1 X82.211 Y91.82 E.38518
G1 X81.811 Y92.271 E.02773
G1 X81.811 Y99.747 E.34395
G1 X81.411 Y99.089 E.03543
G1 X81.411 Y92.861 E.28654
G1 X81.011 Y93.616 E.03931
G1 X81.011 Y98.324 E.2166
G1 X80.741 Y97.688 E.03179
G1 X80.611 Y97.016 E.03149
G1 X80.611 Y94.225 E.12841
;WIPE_START
G1 F8640
G1 X80.611 Y97.016 E-.64445
G1 X80.739 Y97.677 E-.15555
;WIPE_END
G1 X80.411 Y77.542 F10800
G1 E.8 F2100
G1 F600
G1 X80.916 Y77.565 E.02326
G1 X82.03 Y77.819 E.05257
G1 X83.08 Y78.268 E.05254
G1 X84.033 Y78.897 E.05253
G1 X84.858 Y79.687 E.05255
G1 X85.53 Y80.61 E.05253
G1 X86.026 Y81.639 E.05255
G1 X86.33 Y82.74 E.05255
G1 X86.432 Y83.878 E.05257
G1 X86.33 Y85.015 E.05252
G1 X86.027 Y86.117 E.05258
G1 X85.532 Y87.146 E.05253
G1 X84.861 Y88.071 E.05258
G1 X84.035 Y88.861 E.05259
G1 X83.082 Y89.491 E.05256
G1 X82.031 Y89.941 E.0526
G1 X80.917 Y90.195 E.05257
G1 X79.775 Y90.247 E.0526
G1 X78.642 Y90.094 E.0526
G1 X77.555 Y89.741 E.05258
G1 X76.548 Y89.2 E.05259
G1 X75.655 Y88.487 E.05257
G1 X75.263 Y88.039 E.02739
G1 X74.054 Y85.727 E.12004
G1 X73.948 Y85.663 E.0057
G1 X73.711 Y84.449 E.05691
G1 X73.711 Y83.306 E.05259
G1 X73.916 Y82.182 E.05257
G1 X74.318 Y81.112 E.05259
G1 X74.905 Y80.131 E.0526
G1 X75.657 Y79.271 E.05256
G1 X76.551 Y78.559 E.05258
G1 X77.557 Y78.018 E.05255
G1 X78.643 Y77.666 E.05252
G1 X79.776 Y77.513 E.0526
G1 X80.357 Y77.539 E.02676
G1 X80.357 Y77.539 F10800
G1 X85.81 Y86.195
G1 F600
G1 X85.81 Y82.075 E.18955
G1 X85.41 Y81.108 E.04815
G1 X85.41 Y86.653 E.25511
G1 X85.01 Y87.314 E.03555
G1 X85.01 Y80.446 E.31598
G1 X84.61 Y79.897 E.03125
G1 X84.61 Y87.863 E.3665
G1 X84.21 Y88.245 E.02545
G1 X84.21 Y79.515 E.40165
G1 X83.81 Y79.138 E.02529
G1 X83.81 Y88.622 E.43634
G1 X83.41 Y88.886 E.02205
G1 X83.41 Y78.874 E.46063
G1 X83.01 Y78.61 E.02205
G1 X83.01 Y89.15 E.48492
G1 X82.61 Y89.34 E.02037
G1 X82.61 Y78.42 E.5024
G1 X82.211 Y78.249 E.01997
G1 X82.211 Y89.512 E.51819
G1 X81.811 Y89.659 E.01961
G1 X81.811 Y78.101 E.53176
G1 X81.411 Y78.01 E.01887
G1 X81.411 Y89.75 E.54013
G1 X81.011 Y89.842 E.01888
G1 X81.011 Y77.918 E.5486
G1 X80.611 Y77.875 E.01851
G1 X80.611 Y89.885 E.55255
G1 X80.211 Y89.903 E.01842
G1 X80.211 Y77.857 E.55421
G1 X79.811 Y77.839 E.01842
M73 P1 R102
G1 X79.811 Y89.921 E.55587
G1 X79.411 Y89.871 E.01855
G1 X79.411 Y77.889 E.55126
G1 X79.011 Y77.943 E.01857
G1 X79.011 Y89.817 E.5463
G1 X78.611 Y89.743 E.01872
G1 X78.611 Y78.017 E.53949
G1 X78.212 Y78.147 E.01931
G1 X78.212 Y89.614 E.52757
G1 X77.812 Y89.484 E.01935
G1 X77.812 Y78.276 E.51565
G1 X77.412 Y78.464 E.02033
G1 X77.412 Y89.296 E.49836
G1 X77.012 Y89.081 E.02089
G1 X77.012 Y78.679 E.47857
G1 X76.612 Y78.924 E.02158
G1 X76.612 Y88.836 E.45603
G1 X76.212 Y88.517 E.02354
G1 X76.212 Y79.243 E.42668
G1 X75.812 Y79.586 E.02424
G1 X75.812 Y88.175 E.39516
G1 X75.412 Y87.625 E.03129
G1 X75.412 Y80.043 E.34883
G1 X75.012 Y80.582 E.03088
G1 X75.012 Y86.86 E.28884
G1 X74.612 Y86.096 E.03968
M73 P2 R102
M73 Q1 S102
G1 X74.612 Y81.251 E.22291
G1 X74.213 Y82.361 E.05427
M73 Q2 S102
G1 X74.213 Y85.681 E.15275
;WIPE_START
G1 F8640
G1 X74.213 Y82.361 E-.7666
G1 X74.262 Y82.225 E-.0334
;WIPE_END
G1 X105.071 Y89.165 F10800
G1 E.8 F2100
G1 F600
G1 X105.633 Y89.184 E.02587
G1 X106.754 Y89.429 E.05279
G1 X107.815 Y89.872 E.0529
G1 X108.781 Y90.498 E.05296
G1 X109.619 Y91.289 E.05302
G1 X110.301 Y92.219 E.05306
G1 X110.804 Y93.257 E.05307
G1 X111.112 Y94.369 E.05309
G1 X111.214 Y95.519 E.05312
G1 X111.107 Y96.667 E.05305
G1 X110.795 Y97.777 E.05305
G1 X110.289 Y98.811 E.05296
G1 X109.606 Y99.736 E.0529
G1 X108.77 Y100.523 E.05282
G1 X107.808 Y101.146 E.05273
G1 X106.751 Y101.587 E.05269
G1 X105.94 Y101.765 E.0382
G1 X104.717 Y100.725 E.07386
G1 X103.817 Y99.833 E.0583
G1 X102.195 Y97.887 E.11655
G1 X100.83 Y95.752 E.11659
G1 X100.252 Y94.624 E.05831
G1 X99.335 Y92.327 E.11379
G1 X99.646 Y91.799 E.02819
G1 X101.041 Y90.267 E.09533
G1 X102.121 Y89.57 E.05914
G1 X103.381 Y89.162 E.06093
G1 X104.692 Y89.102 E.06038
G1 X105.018 Y89.156 E.0152
G1 X105.018 Y89.156 F10800
G1 X110.604 Y97.8
G1 F600
G1 X110.604 Y93.746 E.18652
G1 X110.204 Y92.761 E.04891
G1 X110.204 Y98.249 E.25249
G1 X109.804 Y98.923 E.03606
G1 X109.804 Y92.089 E.31442
G1 X109.404 Y91.544 E.0311
G1 X109.404 Y99.465 E.36443
G1 X109.004 Y99.858 E.0258
G1 X109.004 Y91.154 E.40045
G1 X108.604 Y90.777 E.02529
G1 X108.604 Y100.234 E.4351
G1 X108.204 Y100.503 E.02218
G1 X108.204 Y90.51 E.45976
G1 X107.804 Y90.251 E.02192
G1 X107.804 Y100.762 E.48359
G1 X107.404 Y100.963 E.0206
G1 X107.404 Y90.051 E.50204
G1 X107.004 Y89.884 E.01994
G1 X107.004 Y101.13 E.5174
G1 X106.654 Y101.276 E.01745
G1 X106.605 Y101.287 E.00231
G1 X106.605 Y89.728 E.5318
G1 X106.205 Y89.641 E.01883
G1 X106.205 Y101.375 E.53985
G1 X106.018 Y101.416 E.00881
G1 X105.805 Y101.245 E.01257
G1 X105.805 Y89.553 E.53792
G1 X105.405 Y89.5 E.01856
G1 X105.405 Y100.896 E.5243
G1 X105.005 Y100.546 E.02445
G1 X105.005 Y89.482 E.50903
G1 X104.605 Y89.43 E.01856
G1 X104.605 Y100.158 E.49357
G1 X104.205 Y99.761 E.02593
G1 X104.205 Y89.449 E.47443
G1 X103.805 Y89.467 E.01842
G1 X103.805 Y99.332 E.45387
G1 X103.405 Y98.882 E.0277
G1 X103.405 Y89.494 E.43192
G1 X103.005 Y89.624 E.01935
G1 X103.005 Y98.398 E.40367
G1 X102.606 Y97.887 E.02983
G1 X102.606 Y89.753 E.37423
G1 X102.206 Y89.9 E.01961
G1 X102.206 Y97.329 E.34179
G1 X101.806 Y96.745 E.03257
G1 X101.806 Y90.158 E.30305
G1 X101.406 Y90.416 E.0219
G1 X101.406 Y96.085 E.26082
G1 X101.006 Y95.385 E.03709
G1 X101.006 Y90.772 E.21223
G1 X100.606 Y91.192 E.02668
G1 X100.606 Y94.605 E.15702
G1 X100.206 Y93.708 E.04519
G1 X100.206 Y91.645 E.09491
G1 X99.806 Y92.165 E.03018
G1 X99.806 Y93.153 E.04546
;WIPE_START
G1 F8640
G1 X99.806 Y92.165 E-.22813
G1 X100.206 Y91.645 E-.15148
G1 X100.206 Y93.465 E-.42039
;WIPE_END
G1 X111.217 Y77.187 F10800
G1 E.8 F2100
G1 F600
G1 X111.738 Y77.211 E.024
G1 X112.853 Y77.468 E.05264
G1 X113.902 Y77.919 E.05253
G1 X114.854 Y78.55 E.05255
G1 X115.677 Y79.34 E.05249
G1 X116.347 Y80.265 E.05255
G1 X116.84 Y81.293 E.05245
G1 X117.142 Y82.393 E.05248
G1 X117.244 Y83.529 E.05248
G1 X117.141 Y84.664 E.05243
G1 X116.838 Y85.763 E.05245
G1 X116.344 Y86.791 E.05247
G1 X115.674 Y87.714 E.05247
G1 X114.851 Y88.503 E.05245
G1 X113.899 Y89.133 E.05252
G1 X112.851 Y89.583 E.05247
G1 X111.738 Y89.84 E.05255
G1 X110.597 Y89.893 E.05255
G1 X109.465 Y89.742 E.05254
G1 X108.377 Y89.391 E.0526
G1 X107.369 Y88.851 E.05261
G1 X106.474 Y88.14 E.05259
G1 X105.72 Y87.279 E.05265
G1 X105.132 Y86.298 E.05262
G1 X104.729 Y85.227 E.05265
G1 X104.523 Y84.1 E.05271
G1 X104.523 Y82.956 E.05263
G1 X104.727 Y81.829 E.05269
G1 X105.13 Y80.758 E.05265
G1 X105.718 Y79.775 E.0527
G1 X106.471 Y78.914 E.05262
G1 X107.367 Y78.202 E.05265
G1 X108.375 Y77.661 E.05263
G1 X109.464 Y77.309 E.05265
G1 X110.598 Y77.158 E.05263
G1 X111.164 Y77.185 E.02607
G1 X111.164 Y77.185 F10800
G1 X116.602 Y85.88
G1 F600
G1 X116.602 Y81.649 E.19466
G1 X116.202 Y80.712 E.04687
G1 X116.202 Y86.338 E.25884
G1 X115.802 Y86.986 E.03504
G1 X115.802 Y80.065 E.31842
G1 X115.402 Y79.525 E.03092
G1 X115.402 Y87.526 E.36811
G1 X115.002 Y87.909 E.02548
G1 X115.002 Y79.142 E.40335
G1 X114.603 Y78.772 E.02504
G1 X114.603 Y88.279 E.4374
G1 X114.203 Y88.544 E.02208
G1 X114.203 Y78.507 E.46178
G1 X113.803 Y78.242 E.02208
G1 X113.803 Y88.809 E.48616
G1 X113.403 Y88.994 E.02028
G1 X113.403 Y78.057 E.50319
G1 X113.003 Y77.885 E.02003
G1 X113.003 Y89.166 E.51901
G1 X112.603 Y89.308 E.01953
G1 X112.603 Y77.743 E.53208
G1 X112.203 Y77.651 E.01888
G1 X112.203 Y89.4 E.54054
G1 X111.803 Y89.492 E.01888
M73 P2 R101
G1 X111.803 Y77.559 E.54901
G1 X111.403 Y77.52 E.01849
G1 X111.403 Y89.531 E.5526
G1 X111.003 Y89.55 E.01842
G1 X111.003 Y77.501 E.55435
G1 X110.612 Y77.483 E.01801
G1 X110.604 Y89.567 E.55596
G1 X110.204 Y89.514 E.01856
G1 X110.204 Y77.537 E.55103
G1 X109.804 Y77.591 E.01857
G1 X109.804 Y89.46 E.54607
G1 X109.404 Y89.382 E.01875
G1 X109.404 Y77.669 E.53889
G1 X109.004 Y77.798 E.01934
G1 X109.004 Y89.253 E.52702
G1 X108.604 Y89.124 E.01934
G1 X108.604 Y77.927 E.51515
G1 X108.204 Y78.12 E.02043
G1 X108.204 Y88.931 E.49739
G1 X107.804 Y88.716 E.02089
G1 X107.804 Y78.335 E.47761
G1 X107.404 Y78.586 E.02173
M73 Q2 S101
G1 X107.404 Y88.465 E.45451
G1 X107.004 Y88.147 E.02351
G1 X107.004 Y78.904 E.42525
G1 X106.605 Y79.254 E.02442
G1 X106.605 Y87.797 E.39304
G1 X106.205 Y87.341 E.02791
G1 X106.205 Y79.711 E.35104
G1 X105.805 Y80.26 E.03125
M73 P3 R101
G1 X105.805 Y86.79 E.30043
G1 X105.405 Y86.103 E.03657
M73 Q3 S101
G1 X105.405 Y80.947 E.23722
G1 X105.005 Y82.113 E.05671
G1 X105.005 Y85.501 E.15587
;WIPE_START
G1 F8640
G1 X105.005 Y82.113 E-.7823
G1 X105.03 Y82.04 E-.0177
;WIPE_END
G1 X150.362 Y79.722 F10800
G1 E.8 F2100
G1 F600
G1 X150.881 Y79.745 E.0239
G1 X151.995 Y80 E.05258
G1 X153.046 Y80.449 E.05258
G1 X153.999 Y81.079 E.05256
G1 X154.825 Y81.869 E.05259
G1 X155.496 Y82.794 E.05258
G1 X156.166 Y84.185 E.07103
G1 X156.499 Y83.297 E.04363
G1 X157.086 Y82.316 E.0526
G1 X157.838 Y81.455 E.05259
G1 X158.731 Y80.742 E.05257
G1 X159.738 Y80.201 E.05259
G1 X160.825 Y79.848 E.05258
G1 X161.958 Y79.695 E.0526
G1 X163.099 Y79.746 E.05255
